X: 951
T: Paddy Mack   #2
R: hornpipe
%S: s:3 b:14(6+4+4)
B: Francis O'Neill: "The Dance Music of Ireland" (1907) #951
Z: Frank Nordberg - http://www.musicaviva.com
F: http://www.musicaviva.com/abc/tunes/ireland/oneill-1001/0951/oneill-1001-0951-1.abc
M: C
L: 1/8
K: G
"^A"[|]   (DF) |: G2(3GGG GBd(B | cd)ef g(fge) |[1,3 d(BGB) d(BGB) | cAF(A cA)FA :|[2,4 dg(ed  BG)A(F | G2)GF  G2 :|
"^B"|: (Bc) | d(BdB)  GBdg  | ece(c AB)cA  | d(BdB) GBdB   | A(GFE) D2 ||
    |  (Bc) | d(BdB)  GBdB  | cde(f gf)ge  | dge(d  B)GA(F | G2)GF  G2 :|
